**harm	**harte	**silbe	**rhyme	**timestamp	**phrase	**leadinstrument	**kern
*M4/4	*M4/4	*	*	*	*	*	*
*	*	*	*	*	*	*	*
*	*	*	*	*	*	*	*
*b:	*b:	*	*	*b:	*b:	*b:	*b:
*	*	*	*	*	*	*	*
*	*	*	*	*	*	*	*
1r;	N	.	.	0	.	r	1r;
=1	=1	=1	=1	=1	=1	=1	=1
*>Letter>A	*>Letter>A	*>Letter>A	*>Letter>A	*>Letter>A	*>Letter>A	*>Letter>A	*>Letter>A
*>Label>Intro	*>Label>Intro	*>Label>Intro	*>Label>Intro	*>Label>Intro	*>Label>Intro	*>Label>Intro	*>Label>Intro
1i7	B:min7	.	.	1.028	newline	saxophone	1B 1dd 1ff# 1aa#
=2	=2	=2	=2	=2	=2	=2	=2
1-VI	G:maj(9)	.	.	2.966	.	saxophone	1G- 1b- 1dd-
=3	=3	=3	=3	=3	=3	=3	=3
1-VII	A:maj	.	.	4.903	.	saxophone	1A 1cc# 1ee
=4	=4	=4	=4	=4	=4	=4	=4
2-VI	G:maj(9)	.	.	6.84	.	saxophone	1G- 1b- 1dd-
2-VII	A:maj	.	.	7.809	.	saxophone	2A 2cc# 2ee
=5	=5	=5	=5	=5	=5	=5	=5
1i7	B:min7	.	.	8.778	newline	saxophone	1B 1dd 1ff# 1aa#
=6	=6	=6	=6	=6	=6	=6	=6
1-VI	G:maj(9)	.	.	10.733	.	saxophone	1G- 1b- 1dd-
=7	=7	=7	=7	=7	=7	=7	=7
1-VII	A:maj	.	.	12.689	.	saxophone	1A 1cc# 1ee
=8	=8	=8	=8	=8	=8	=8	=8
2-VI	G:maj(9)	.	.	14.645	.	saxophone	2G- 2b- 2dd-
2-VII	A:maj	.	.	15.622	.	saxophone	2A 2cc# 2ee
.	.	Cry-	.	.	.	.	.
=9	=9	=9	=9	=9	=9	=9	=9
*>Letter>B	*>Letter>B	*>Letter>B	*>Letter>B	*>Letter>B	*>Letter>B	*>Letter>B	*>Letter>B
*>Label>Verse	*>Label>Verse	*>Label>Verse	*>Label>Verse	*>Label>Verse	*>Label>Verse	*>Label>Verse	*>Label>Verse
1i	B:min	_	.	16.6	newline	voice	1B 1dd 1ff#
.	.	-in'	.	.	.	.	.
.	.	on	.	.	.	.	.
.	.	the	.	.	.	.	.
.	.	corn-	.	.	.	.	.
.	.	-er	.	.	.	.	.
.	.	.	.	.	.	.	.
.	.	wait	.	.	.	.	.
=10	=10	=10	=10	=10	=10	=10	=10
1i	B:min	_	.	18.536	.	voice	1B 1dd 1ff#
.	.	in'	.	.	.	.	.
.	.	in	.	.	.	.	.
.	.	the	.	.	.	.	.
.	.	rain	A	.	.	.	.
.	.	I	.	.	.	.	.
.	.	swear	.	.	.	.	.
=11	=11	=11	=11	=11	=11	=11	=11
1-VII	A:maj	_	.	20.472	.	voice	1A 1cc# 1ee
.	.	I'll	.	.	.	.	.
.	.	ne-	.	.	.	.	.
.	.	-ver	.	.	.	.	.
.	.	e-	.	.	.	.	.
.	.	-ver	.	.	.	.	.
=12	=12	=12	=12	=12	=12	=12	=12
1-VII	A:maj	wait	.	22.409	.	voice	1A 1cc# 1ee
.	.	_	.	.	.	.	.
.	.	a-	.	.	.	.	.
.	.	-gain	A	.	.	.	.
.	.	.	.	.	.	.	.
.	.	You	.	.	.	.	.
=13	=13	=13	=13	=13	=13	=13	=13
1i	B:min	gave	.	24.345	newline	voice	1B 1dd 1ff#
.	.	me	.	.	.	.	.
.	.	your	.	.	.	.	.
.	.	word	.	.	.	.	.
.	.	_	.	.	.	.	.
.	.	_	.	.	.	.	.
.	.	_	.	.	.	.	.
.	.	.	.	.	.	.	.
.	.	but	.	.	.	.	.
=14	=14	=14	=14	=14	=14	=14	=14
1i	B:min	words	.	26.305	.	voice	1B 1dd 1ff#
.	.	to	.	.	.	.	.
.	.	you	.	.	.	.	.
.	.	are	.	.	.	.	.
.	.	lies	B	.	.	.	.
=15	=15	=15	=15	=15	=15	=15	=15
1-VII	A:maj	_	.	28.266	.	voice	1A 1cc# 1ee
.	.	_	.	.	.	.	.
.	.	_	.	.	.	.	.
=16	=16	=16	=16	=16	=16	=16	=16
1-VII	A:maj	.	.	30.226	.	voice	1A 1cc# 1ee
.	.	.	.	.	.	.	.
.	.	Dar-	.	.	.	.	.
=17	=17	=17	=17	=17	=17	=17	=17
*>Letter>C	*>Letter>C	*>Letter>C	*>Letter>C	*>Letter>C	*>Letter>C	*>Letter>C	*>Letter>C
*>Label>Prechorus	*>Label>Prechorus	*>Label>Prechorus	*>Label>Prechorus	*>Label>Prechorus	*>Label>Prechorus	*>Label>Prechorus	*>Label>Prechorus
1-VI	G:maj(9)	_	.	32.187	newline	voice	1G- 1b- 1dd-
.	.	_	.	.	.	.	.
.	.	-lin'	.	.	.	.	.
.	.	in	.	.	.	.	.
.	.	my	.	.	.	.	.
.	.	wild-	B	.	.	.	.
=18	=18	=18	=18	=18	=18	=18	=18
1-VII	A:maj	_	.	34.13	.	voice	1A 1cc# 1ee
.	.	-est	.	.	.	.	.
.	.	dreams	.	.	.	.	.
.	.	.	.	.	.	.	.
.	.	I	.	.	.	.	.
=19	=19	=19	=19	=19	=19	=19	=19
2i7	B:min7	ne-	.	36.074	.	voice	3...B 3...dd 3...ff# 3...aa#
.	.	-ver	.	.	.	.	.
.	.	thought	.	.	.	.	.
2-VII	A:maj	.	.	37.046	.	voice	4.A 4.cc# 4.ee
.	.	I'd	.	.	.	.	.
.	.	go	C	.	.	.	.
=20	=20	=20	=20	=20	=20	=20	=20
1-VI	G:maj(9)	_	.	38.018	.	voice	1G- 1b- 1dd-
.	.	ho	.	.	.	.	.
.	.	_	.	.	.	.	.
=21	=21	=21	=21	=21	=21	=21	=21
1-VI	G:maj(9)	_	.	39.962	.	voice	1G- 1b- 1dd-
.	.	.	.	.	.	.	.
.	.	But	.	.	.	.	.
.	.	it's	.	.	.	.	.
=22	=22	=22	=22	=22	=22	=22	=22
2i7	B:min7	time	.	41.905	newline	voice	2B 2dd 2ff# 2aa#
.	.	to	.	.	.	.	.
2-VII	A:maj	let	.	42.872	.	voice	2A 2cc# 2ee
.	.	you	.	.	.	.	.
=23	=23	=23	=23	=23	=23	=23	=23
1-VI	G:maj(9)	know	C	43.839	.	voice	1G- 1b- 1dd-
.	.	_	.	.	.	.	.
.	.	_	.	.	.	.	.
.	.	_	.	.	.	.	.
.	.	ho	.	.	.	.	.
.	.	_	.	.	.	.	.
=24	=24	=24	=24	=24	=24	=24	=24
1-VII	A:maj	_	.	45.772	.	voice	1A 1cc# 1ee
.	.	.	.	.	.	.	.
.	.	Go-	.	.	.	.	.
.	.	-nna	.	.	.	.	.
=25	=25	=25	=25	=25	=25	=25	=25
*>Letter>D	*>Letter>D	*>Letter>D	*>Letter>D	*>Letter>D	*>Letter>D	*>Letter>D	*>Letter>D
*>Label>Chorus	*>Label>Chorus	*>Label>Chorus	*>Label>Chorus	*>Label>Chorus	*>Label>Chorus	*>Label>Chorus	*>Label>Chorus
1i	B:min	har-	.	47.706	->newline	voice	1B 1dd 1ff#
.	.	-den	.	.	.	.	.
.	.	my	.	.	.	.	.
.	.	heart	.	.	.	.	.
=26	=26	=26	=26	=26	=26	=26	=26
1i	B:min	_	.	49.655	.	voice	1B 1dd 1ff#
.	.	.	.	.	.	.	.
.	.	I'm	.	.	.	.	.
.	.	go-	.	.	.	.	.
.	.	-nna	.	.	.	.	.
=27	=27	=27	=27	=27	=27	=27	=27
1-VII	A:maj	swa-	.	51.604	.	voice	1A 1cc# 1ee
.	.	-llow	.	.	.	.	.
.	.	my	.	.	.	.	.
.	.	tears	D	.	.	.	.
.	.	_	.	.	.	.	.
=28	=28	=28	=28	=28	=28	=28	=28
1-VII	A:maj	_	.	53.553	.	voice	1A 1cc# 1ee
.	.	.	.	.	.	.	.
.	.	I'm	.	.	.	.	.
.	.	go-	.	.	.	.	.
.	.	-nna	.	.	.	.	.
=29	=29	=29	=29	=29	=29	=29	=29
2-VI	G:maj(9)	turn	.	55.502	newline	voice	2G- 2b- 2dd-
.	.	.	.	.	.	.	.
2-VII	A:maj	and	.	56.472	.	voice	2A 2cc# 2ee
.	.	.	.	.	.	.	.
=30	=30	=30	=30	=30	=30	=30	=30
2i7	B:min7	leave	.	57.442	.	voice	2B 2dd 2ff# 2aa#
.	.	_	.	.	.	.	.
2-VII	A:maj	you	.	58.412	.	voice	2A 2cc# 2ee
.	.	_	.	.	.	.	.
.	.	_	.	.	.	.	.
=31	=31	=31	=31	=31	=31	=31	=31
1-VI	G:maj(9)	_	.	59.382	.	voice	1G- 1b- 1dd-
.	.	here	D	.	.	.	.
.	.	_	.	.	.	.	.
=32	=32	=32	=32	=32	=32	=32	=32
1-VI	G:maj(9)	_	.	61.322	.	voice	1G- 1b- 1dd-
.	.	.	.	.	.	.	.
.	.	All	.	.	.	.	.
=33	=33	=33	=33	=33	=33	=33	=33
*>Letter>B	*>Letter>B	*>Letter>B	*>Letter>B	*>Letter>B	*>Letter>B	*>Letter>B	*>Letter>B
*>Label>Verse	*>Label>Verse	*>Label>Verse	*>Label>Verse	*>Label>Verse	*>Label>Verse	*>Label>Verse	*>Label>Verse
1i	B:min	_	.	63.261	newline	voice	1B 1dd 1ff#
.	.	of	.	.	.	.	.
.	.	my	.	.	.	.	.
.	.	life	.	.	.	.	.
.	.	I've	.	.	.	.	.
.	.	been	.	.	.	.	.
.	.	wait-	A	.	.	.	.
=34	=34	=34	=34	=34	=34	=34	=34
1i	B:min	_	.	65.209	.	voice	1B 1dd 1ff#
.	.	-in'	.	.	.	.	.
.	.	the	.	.	.	.	.
.	.	rain	A	.	.	.	.
.	.	_	.	.	.	.	.
.	.	.	.	.	.	.	.
.	.	I've	.	.	.	.	.
.	.	been	.	.	.	.	.
.	.	wait-	.	.	.	.	.
=35	=35	=35	=35	=35	=35	=35	=35
1-VII	A:maj	_	.	67.156	.	voice	1A 1cc# 1ee
.	.	-in'	.	.	.	.	.
.	.	for	.	.	.	.	.
.	.	a	.	.	.	.	.
.	.	feel-	.	.	.	.	.
.	.	-in'	.	.	.	.	.
.	.	.	.	.	.	.	.
.	.	that	.	.	.	.	.
=36	=36	=36	=36	=36	=36	=36	=36
1-VII	A:maj	ne-	.	69.103	.	voice	1A 1cc# 1ee
.	.	-ver	.	.	.	.	.
.	.	e-	.	.	.	.	.
.	.	-ver	.	.	.	.	.
.	.	came	A	.	.	.	.
.	.	It	.	.	.	.	.
=37	=37	=37	=37	=37	=37	=37	=37
1i	B:min	feels	.	71.05	newline	voice	1B 1dd 1ff#
.	.	so	.	.	.	.	.
.	.	close	.	.	.	.	.
.	.	.	.	.	.	.	.
.	.	but	.	.	.	.	.
=38	=38	=38	=38	=38	=38	=38	=38
1i	B:min	al-	.	72.991	.	voice	1B 1dd 1ff#
.	.	-ways	.	.	.	.	.
.	.	dis-	.	.	.	.	.
.	.	-a-	.	.	.	.	.
.	.	-pears	D	.	.	.	.
=39	=39	=39	=39	=39	=39	=39	=39
1-VII	A:maj	_	.	74.932	.	voice	1A 1cc# 1ee
.	.	_	.	.	.	.	.
.	.	_	.	.	.	.	.
=40	=40	=40	=40	=40	=40	=40	=40
1-VII	A:maj	.	.	76.873	.	voice	1A 1cc# 1ee
.	.	.	.	.	.	.	.
.	.	Dar-	.	.	.	.	.
=41	=41	=41	=41	=41	=41	=41	=41
*>Letter>C	*>Letter>C	*>Letter>C	*>Letter>C	*>Letter>C	*>Letter>C	*>Letter>C	*>Letter>C
*>Label>Prechorus	*>Label>Prechorus	*>Label>Prechorus	*>Label>Prechorus	*>Label>Prechorus	*>Label>Prechorus	*>Label>Prechorus	*>Label>Prechorus
1-VI	G:maj(9)	_	.	78.814	newline	voice	1G- 1b- 1dd-
.	.	_	.	.	.	.	.
.	.	-lin'	.	.	.	.	.
.	.	in	.	.	.	.	.
.	.	your	.	.	.	.	.
.	.	wild-	B	.	.	.	.
=42	=42	=42	=42	=42	=42	=42	=42
1-VII	A:maj	_	.	80.767	.	voice	1A 1cc# 1ee
.	.	-est	.	.	.	.	.
.	.	dreams	.	.	.	.	.
.	.	.	.	.	.	.	.
.	.	You	E	.	.	.	.
=43	=43	=43	=43	=43	=43	=43	=43
2i7	B:min7	ne-	.	82.721	.	voice	2.B 2.dd 2.ff# 2.aa#
.	.	-ver	.	.	.	.	.
.	.	had	.	.	.	.	.
2-VII	A:maj	.	.	83.697	.	voice	4A 4cc# 4ee
.	.	a	.	.	.	.	.
.	.	clue	E	.	.	.	.
=44	=44	=44	=44	=44	=44	=44	=44
1-VI	G:maj(9)	_	.	84.674	.	voice	1G- 1b- 1dd-
.	.	Hoo	E	.	.	.	.
.	.	_	.	.	.	.	.
=45	=45	=45	=45	=45	=45	=45	=45
1-VI	G:maj(9)	_	.	86.627	.	voice	1G- 1b- 1dd-
.	.	.	.	.	.	.	.
.	.	But	.	.	.	.	.
.	.	it's	.	.	.	.	.
=46	=46	=46	=46	=46	=46	=46	=46
2i7	B:min7	time	.	88.58	newline	voice	2B 2dd 2ff# 2aa#
.	.	you	E	.	.	.	.
2-VII	A:maj	got	.	89.56	.	voice	2A 2cc# 2ee
.	.	the	.	.	.	.	.
=47	=47	=47	=47	=47	=47	=47	=47
1-VI	G:maj(9)	news	E	90.54	.	voice	1G- 1b- 1dd-
.	.	_	.	.	.	.	.
.	.	_	.	.	.	.	.
.	.	_	.	.	.	.	.
.	.	_	.	.	.	.	.
.	.	_	.	.	.	.	.
.	.	_	.	.	.	.	.
.	.	_	.	.	.	.	.
.	.	_	.	.	.	.	.
=48	=48	=48	=48	=48	=48	=48	=48
1-VII	A:maj	_	.	92.5	.	voice	1A 1cc# 1ee
.	.	.	.	.	.	.	.
.	.	I'm	.	.	.	.	.
.	.	go-	.	.	.	.	.
.	.	-nna	.	.	.	.	.
=49	=49	=49	=49	=49	=49	=49	=49
*>Letter>D	*>Letter>D	*>Letter>D	*>Letter>D	*>Letter>D	*>Letter>D	*>Letter>D	*>Letter>D
*>Label>Chorus	*>Label>Chorus	*>Label>Chorus	*>Label>Chorus	*>Label>Chorus	*>Label>Chorus	*>Label>Chorus	*>Label>Chorus
1i	B:min	har-	.	94.461	->newline	voice	1B 1dd 1ff#
.	.	-den	.	.	.	.	.
.	.	my	.	.	.	.	.
.	.	heart	.	.	.	.	.
=50	=50	=50	=50	=50	=50	=50	=50
1i	B:min	_	.	96.4	.	voice	1B 1dd 1ff#
.	.	.	.	.	.	.	.
.	.	I'm	.	.	.	.	.
.	.	go-	.	.	.	.	.
.	.	-nna	.	.	.	.	.
=51	=51	=51	=51	=51	=51	=51	=51
1-VII	A:maj	swa-	.	98.339	.	voice	1A 1cc# 1ee
.	.	-llow	.	.	.	.	.
.	.	my	.	.	.	.	.
.	.	tears	D	.	.	.	.
.	.	_	.	.	.	.	.
=52	=52	=52	=52	=52	=52	=52	=52
1-VII	A:maj	_	.	100.278	.	voice	1A 1cc# 1ee
.	.	.	.	.	.	.	.
.	.	Go-	.	.	.	.	.
.	.	-nna	.	.	.	.	.
=53	=53	=53	=53	=53	=53	=53	=53
2-VI	G:maj(9)	turn	.	102.217	newline	voice	2G- 2b- 2dd-
.	.	.	.	.	.	.	.
2-VII	A:maj	and	.	103.19	.	voice	2A 2cc# 2ee
.	.	.	.	.	.	.	.
=54	=54	=54	=54	=54	=54	=54	=54
2i7	B:min7	leave	.	104.164	.	voice	2B 2dd 2ff# 2aa#
.	.	_	.	.	.	.	.
2-VII	A:maj	you	.	105.137	.	voice	2A 2cc# 2ee
.	.	_	.	.	.	.	.
.	.	_	.	.	.	.	.
=55	=55	=55	=55	=55	=55	=55	=55
1-VI	G:maj(9)	_	.	106.111	.	voice	1G- 1b- 1dd-
.	.	here	D	.	.	.	.
.	.	_	.	.	.	.	.
=56	=56	=56	=56	=56	=56	=56	=56
1-VI	G:maj(9)	_	.	108.058	.	voice	1G- 1b- 1dd-
.	.	.	.	.	.	.	.
=57	=57	=57	=57	=57	=57	=57	=57
*>Letter>E	*>Letter>E	*>Letter>E	*>Letter>E	*>Letter>E	*>Letter>E	*>Letter>E	*>Letter>E
*>Label>Solo	*>Label>Solo	*>Label>Solo	*>Label>Solo	*>Label>Solo	*>Label>Solo	*>Label>Solo	*>Label>Solo
1i7	B:min7	.	.	110.005	newline	saxophone	1B 1dd 1ff# 1aa#
=58	=58	=58	=58	=58	=58	=58	=58
1-VI	G:maj(9)	.	.	111.963	.	saxophone	1G- 1b- 1dd-
=59	=59	=59	=59	=59	=59	=59	=59
1-VII	A:maj	.	.	113.922	.	saxophone	1A 1cc# 1ee
=60	=60	=60	=60	=60	=60	=60	=60
2-VI	G:maj(9)	.	.	115.881	.	saxophone	1G- 1b- 1dd-
2-VII	A:maj	.	.	116.861	.	saxophone	2A 2cc# 2ee
=61	=61	=61	=61	=61	=61	=61	=61
1i7	B:min7	.	.	117.84	newline	saxophone	1B 1dd 1ff# 1aa#
=62	=62	=62	=62	=62	=62	=62	=62
1-VI	G:maj(9)	.	.	119.771	.	saxophone	1G- 1b- 1dd-
=63	=63	=63	=63	=63	=63	=63	=63
1-VII	A:maj	.	.	121.702	.	saxophone	1A 1cc# 1ee
=64	=64	=64	=64	=64	=64	=64	=64
2-VI	G:maj(9)	.	.	123.633	.	saxophone	1G- 1b- 1dd-
2-VII	A:maj	.	.	124.599	.	saxophone	2A 2cc# 2ee
=65	=65	=65	=65	=65	=65	=65	=65
*>Letter>F	*>Letter>F	*>Letter>F	*>Letter>F	*>Letter>F	*>Letter>F	*>Letter>F	*>Letter>F
*>Label>Solo	*>Label>Solo	*>Label>Solo	*>Label>Solo	*>Label>Solo	*>Label>Solo	*>Label>Solo	*>Label>Solo
1i	B:min	.	.	125.565	newline	guitar	1B 1dd 1ff#
=66	=66	=66	=66	=66	=66	=66	=66
1i	B:min	.	.	127.503	.	guitar	1B 1dd 1ff#
=67	=67	=67	=67	=67	=67	=67	=67
1-VII	A:maj	.	.	129.441	.	guitar	1A 1cc# 1ee
=68	=68	=68	=68	=68	=68	=68	=68
1-VII	A:maj	.	.	131.379	.	guitar	1A 1cc# 1ee
=69	=69	=69	=69	=69	=69	=69	=69
1i	B:min	.	.	133.318	newline	guitar	1B 1dd 1ff#
=70	=70	=70	=70	=70	=70	=70	=70
1i	B:min	.	.	135.255	.	guitar	1B 1dd 1ff#
=71	=71	=71	=71	=71	=71	=71	=71
1-VII	A:maj	.	.	137.192	.	guitar	1A 1cc# 1ee
.	.	.	.	.	.	.	.
.	.	Dar-	.	.	.	.	.
=72	=72	=72	=72	=72	=72	=72	=72
1-VII	A:maj	_	.	139.13	.	guitar	1A 1cc# 1ee
.	.	_	.	.	.	.	.
.	.	-lin'	.	.	.	.	.
.	.	in	.	.	.	.	.
.	.	my	.	.	.	.	.
.	.	wild-	B	.	.	.	.
=73	=73	=73	=73	=73	=73	=73	=73
*>Letter>C	*>Letter>C	*>Letter>C	*>Letter>C	*>Letter>C	*>Letter>C	*>Letter>C	*>Letter>C
*>Label>Prechorus	*>Label>Prechorus	*>Label>Prechorus	*>Label>Prechorus	*>Label>Prechorus	*>Label>Prechorus	*>Label>Prechorus	*>Label>Prechorus
1-VI	G:maj(9)	_	.	141.067	newline	voice	1G- 1b- 1dd-
.	.	-est	.	.	.	.	.
.	.	dreams	.	.	.	.	.
.	.	.	.	.	.	.	.
.	.	I	.	.	.	.	.
=74	=74	=74	=74	=74	=74	=74	=74
1-VII	A:maj	ne-	.	143.003	.	voice	1A 1cc# 1ee
.	.	-ver	.	.	.	.	.
.	.	thought	.	.	.	.	.
.	.	I'd	.	.	.	.	.
.	.	go	C	.	.	.	.
=75	=75	=75	=75	=75	=75	=75	=75
2i7	B:min7	_	.	144.94	.	voice	2.B 2.dd 2.ff# 2.aa#
2-VII	A:maj	.	.	145.908	.	voice	4A 4cc# 4ee
.	.	.	.	.	.	.	.
=76	=76	=76	=76	=76	=76	=76	=76
1-VI	G:maj(9)	.	.	146.876	.	voice	1G- 1b- 1dd-
.	.	.	.	.	.	.	.
.	.	But	.	.	.	.	.
.	.	it's	.	.	.	.	.
=77	=77	=77	=77	=77	=77	=77	=77
1-VI	G:maj(9)	time	.	148.812	.	voice	1G- 1b- 1dd-
.	.	to	.	.	.	.	.
.	.	let	.	.	.	.	.
.	.	you	.	.	.	.	.
=78	=78	=78	=78	=78	=78	=78	=78
2i7	B:min7	know	C	150.749	newline	voice	2B 2dd 2ff# 2aa#
.	.	_	.	.	.	.	.
.	.	_	.	.	.	.	.
.	.	_	.	.	.	.	.
.	.	_	.	.	.	.	.
2-VII	A:maj	_	.	151.726	.	voice	2A 2cc# 2ee
.	.	_	.	.	.	.	.
.	.	_	.	.	.	.	.
.	.	_	.	.	.	.	.
=79	=79	=79	=79	=79	=79	=79	=79
1-VI	G:maj(9)	_	.	152.704	.	voice	1G- 1b- 1dd-
.	.	.	.	.	.	.	.
.	.	Go-	.	.	.	.	.
.	.	-nna	.	.	.	.	.
=80	=80	=80	=80	=80	=80	=80	=80
1-VII	A:maj	har-	.	154.66	.	voice	1A 1cc# 1ee
.	.	-den	.	.	.	.	.
.	.	my	.	.	.	.	.
.	.	heart	.	.	.	.	.
=81	=81	=81	=81	=81	=81	=81	=81
*>Letter>D	*>Letter>D	*>Letter>D	*>Letter>D	*>Letter>D	*>Letter>D	*>Letter>D	*>Letter>D
*>Label>Chorus	*>Label>Chorus	*>Label>Chorus	*>Label>Chorus	*>Label>Chorus	*>Label>Chorus	*>Label>Chorus	*>Label>Chorus
1i	B:min	_	.	156.616	->newline	voice	1B 1dd 1ff#
.	.	.	.	.	.	.	.
.	.	I'm	.	.	.	.	.
.	.	go-	.	.	.	.	.
.	.	-nna	.	.	.	.	.
=82	=82	=82	=82	=82	=82	=82	=82
1i	B:min	swa-	.	158.557	.	voice	1B 1dd 1ff#
.	.	-llow	.	.	.	.	.
.	.	my	.	.	.	.	.
.	.	tears	D	.	.	.	.
.	.	_	.	.	.	.	.
=83	=83	=83	=83	=83	=83	=83	=83
1-VII	A:maj	_	.	160.498	.	voice	1A 1cc# 1ee
.	.	.	.	.	.	.	.
.	.	I'm	.	.	.	.	.
.	.	go-	.	.	.	.	.
.	.	-nna	.	.	.	.	.
=84	=84	=84	=84	=84	=84	=84	=84
1-VII	A:maj	turn	.	162.439	.	voice	1A 1cc# 1ee
.	.	.	.	.	.	.	.
.	.	and	.	.	.	.	.
.	.	.	.	.	.	.	.
=85	=85	=85	=85	=85	=85	=85	=85
2-VI	G:maj(9)	leave	.	164.38	newline	voice	2G- 2b- 2dd-
.	.	_	.	.	.	.	.
2-VII	A:maj	you	.	165.346	.	voice	2A 2cc# 2ee
.	.	_	.	.	.	.	.
.	.	here	D	.	.	.	.
=86	=86	=86	=86	=86	=86	=86	=86
2i7	B:min7	_	.	166.311	.	voice	2.B 2.dd 2.ff# 2.aa#
.	.	_	.	.	.	.	.
.	.	_	.	.	.	.	.
.	.	_	.	.	.	.	.
2-VII	A:maj	.	.	167.277	.	voice	4A 4cc# 4ee
.	.	hee	.	.	.	.	.
.	.	_	.	.	.	.	.
=87	=87	=87	=87	=87	=87	=87	=87
1-VI	G:maj(9)	_	.	168.242	.	voice	1G- 1b- 1dd-
.	.	_	.	.	.	.	.
.	.	.	.	.	.	.	.
.	.	I'm	.	.	.	.	.
.	.	go-	.	.	.	.	.
.	.	-nna	.	.	.	.	.
=88	=88	=88	=88	=88	=88	=88	=88
1-VI	G:maj(9)	har-	.	170.173	.	voice	1G- 1b- 1dd-
.	.	-den	.	.	.	.	.
.	.	my	.	.	.	.	.
.	.	heart	.	.	.	.	.
=89	=89	=89	=89	=89	=89	=89	=89
*>Letter>D	*>Letter>D	*>Letter>D	*>Letter>D	*>Letter>D	*>Letter>D	*>Letter>D	*>Letter>D
*>Label>Chorus	*>Label>Chorus	*>Label>Chorus	*>Label>Chorus	*>Label>Chorus	*>Label>Chorus	*>Label>Chorus	*>Label>Chorus
1i	B:min	_	.	172.104	newline	voice	1B 1dd 1ff#
.	.	.	.	.	.	.	.
.	.	I'm	.	.	.	.	.
.	.	go-	.	.	.	.	.
.	.	-nna	.	.	.	.	.
=90	=90	=90	=90	=90	=90	=90	=90
1i	B:min	swa-	.	174.036	.	voice	1B 1dd 1ff#
.	.	-llow	.	.	.	.	.
.	.	my	.	.	.	.	.
.	.	tears	D	.	.	.	.
.	.	_	.	.	.	.	.
=91	=91	=91	=91	=91	=91	=91	=91
1-VII	A:maj	_	.	175.968	.	voice	1A 1cc# 1ee
.	.	.	.	.	.	.	.
.	.	I'm-	.	.	.	.	.
.	.	-ma	.	.	.	.	.
.	.	go-	.	.	.	.	.
.	.	-nna	.	.	.	.	.
=92	=92	=92	=92	=92	=92	=92	=92
1-VII	A:maj	har-	.	177.899	.	voice	1A 1cc# 1ee
.	.	-den	.	.	.	.	.
.	.	my	.	.	.	.	.
.	.	heart	.	.	.	.	.
.	.	_	.	.	.	.	.
.	.	_	.	.	.	.	.
.	.	_	.	.	.	.	.
=93	=93	=93	=93	=93	=93	=93	=93
1i	B:min	_	.	179.831	newline	voice	1B 1dd 1ff#
.	.	.	.	.	.	.	.
.	.	.	.	.	.	.	.
.	.	I'm	.	.	.	.	.
.	.	go-	.	.	.	.	.
.	.	-nna	.	.	.	.	.
=94	=94	=94	=94	=94	=94	=94	=94
1i	B:min	swa-	.	181.744	.	voice	1B 1dd 1ff#
.	.	-llow	.	.	.	.	.
.	.	my	.	.	.	.	.
.	.	tears	D	.	.	.	.
.	.	_	.	.	.	.	.
.	.	_	.	.	.	.	.
.	.	_	.	.	.	.	.
=95	=95	=95	=95	=95	=95	=95	=95
1-VII	A:maj	_	.	183.657	.	voice	1A 1cc# 1ee
.	.	_	.	.	.	.	.
.	.	_	.	.	.	.	.
.	.	_	.	.	.	.	.
.	.	_	.	.	.	.	.
.	.	.	.	.	.	.	.
=96	=96	=96	=96	=96	=96	=96	=96
1-VII	A:maj	Har-	.	185.57	.	voice	1A 1cc# 1ee
.	.	-den	.	.	.	.	.
.	.	my	.	.	.	.	.
.	.	heart	.	.	.	.	.
.	.	_	.	.	.	.	.
=97	=97	=97	=97	=97	=97	=97	=97
*>Letter>D	*>Letter>D	*>Letter>D	*>Letter>D	*>Letter>D	*>Letter>D	*>Letter>D	*>Letter>D
*>Label>Chorus	*>Label>Chorus	*>Label>Chorus	*>Label>Chorus	*>Label>Chorus	*>Label>Chorus	*>Label>Chorus	*>Label>Chorus
1i	B:min	_	.	187.483	newline	voice	1B 1dd 1ff#
.	.	_	.	.	.	.	.
.	.	_	.	.	.	.	.
.	.	.	.	.	.	.	.
.	.	I'm	.	.	.	.	.
.	.	go-	.	.	.	.	.
.	.	-nna	.	.	.	.	.
=98	=98	=98	=98	=98	=98	=98	=98
1i	B:min	swa-	.	189.388	.	voice	1B 1dd 1ff#
.	.	-llow	.	.	.	.	.
.	.	my	.	.	.	.	.
.	.	tears	D	.	.	.	.
.	.	_	.	.	.	.	.
.	.	_	.	.	.	.	.
.	.	_	.	.	.	.	.
=99	=99	=99	=99	=99	=99	=99	=99
1-VII	A:maj	_	.	191.292	.	voice	1A 1cc# 1ee
.	.	_	.	.	.	.	.
.	.	_	.	.	.	.	.
.	.	_	.	.	.	.	.
.	.	.	.	.	.	.	.
=100	=100	=100	=100	=100	=100	=100	=100
1-VII	A:maj	No	.	193.196	.	voice	1A 1cc# 1ee
.	.	.	.	.	.	.	.
.	.	oh	.	.	.	.	.
.	.	.	.	.	.	.	.
=101	=101	=101	=101	=101	=101	=101	=101
1i	B:min	oh	.	195.1	newline	voice	1B 1dd 1ff#
.	.	.	.	.	.	.	.
.	.	oh	.	.	.	.	.
.	.	_	.	.	.	.	.
=102	=102	=102	=102	=102	=102	=102	=102
1i	B:min	har-	.	196.982	.	voice	1B 1dd 1ff#
.	.	-den	.	.	.	.	.
.	.	my	.	.	.	.	.
.	.	heart	.	.	.	.	.
.	.	_	.	.	.	.	.
=103	=103	=103	=103	=103	=103	=103	=103
1-VII	A:maj	.	.	198.863	.	voice	1A 1cc# 1ee
.	.	I'm	.	.	.	.	.
.	.	go-	.	.	.	.	.
.	.	-nna	.	.	.	.	.
=104	=104	=104	=104	=104	=104	=104	=104
1-VII	A:maj	har-	.	200.745	.	voice	1A 1cc# 1ee
.	.	-den	.	.	.	.	.
.	.	my	.	.	.	.	.
.	.	heart	.	.	.	.	.
=105	=105	=105	=105	=105	=105	=105	=105
*>Letter>D	*>Letter>D	*>Letter>D	*>Letter>D	*>Letter>D	*>Letter>D	*>Letter>D	*>Letter>D
*>Label>Chorus	*>Label>Chorus	*>Label>Chorus	*>Label>Chorus	*>Label>Chorus	*>Label>Chorus	*>Label>Chorus	*>Label>Chorus
1i	B:min	_	.	202.626	newline	fadeout	1B 1dd 1ff#
.	.	.	.	.	.	.	.
.	.	I'm	.	.	.	.	.
.	.	go-	.	.	.	.	.
.	.	-nna	.	.	.	.	.
=106	=106	=106	=106	=106	=106	=106	=106
1i	B:min	swa-	.	204.532	.	fadeout	1B 1dd 1ff#
.	.	-llow	.	.	.	.	.
.	.	my	.	.	.	.	.
.	.	tears	D	.	.	.	.
.	.	_	.	.	.	.	.
=107	=107	=107	=107	=107	=107	=107	=107
1-VII	A:maj	_	.	206.438	.	fadeout	1A 1cc# 1ee
.	.	.	.	.	.	.	.
.	.	I'm-	.	.	.	.	.
.	.	-ma	.	.	.	.	.
.	.	go-	.	.	.	.	.
.	.	-nna	.	.	.	.	.
=108	=108	=108	=108	=108	=108	=108	=108
1-VII	A:maj	har-	.	208.344	.	fadeout	1A 1cc# 1ee
.	.	-den	.	.	.	.	.
.	.	my	.	.	.	.	.
.	.	heart	.	.	.	.	.
.	.	_	.	.	.	.	.
.	.	_	.	.	.	.	.
.	.	_	.	.	.	.	.
=109	=109	=109	=109	=109	=109	=109	=109
1i	B:min	_	.	210.25	newline	voice	1B 1dd 1ff#
.	.	.	.	.	.	.	.
.	.	.	.	.	.	.	.
.	.	I'm	.	.	.	.	.
.	.	go-	.	.	.	.	.
.	.	-nna	.	.	.	.	.
=110	=110	=110	=110	=110	=110	=110	=110
1i	B:min	swa-	.	211.227	.	voice	1B 1dd 1ff#
.	.	-llow	.	.	.	.	.
.	.	my	.	.	.	.	.
.	.	tears	D	.	.	.	.
.	.	_	.	.	.	.	.
.	.	_	.	.	.	.	.
.	.	_	.	.	.	.	.
=111	=111	=111	=111	=111	=111	=111	=111
1-VII	A:maj	_	.	212.204	.	voice	1A 1cc# 1ee
.	.	_	.	.	.	.	.
.	.	_	.	.	.	.	.
.	.	_	.	.	.	.	.
.	.	_	.	.	.	.	.
.	.	.	.	.	.	.	.
=112	=112	=112	=112	=112	=112	=112	=112
1-VII	A:maj	Har-	.	213.181	.	voice	1A 1cc# 1ee
.	.	-den	.	.	.	.	.
.	.	my	.	.	.	.	.
.	.	heart	.	.	.	.	.
.	.	_	.	.	.	.	.
1r;	N	.	.	214.158	.	r	1r;
1r;	N	.	.	217.809	.	r	1r;
*-	*-	*-	*-	*-	*-	*-	*-
!!!BillboardChartDate: 1982/03/06, 1982/02/06
!!!BillboardPeak: 3, 3
!!!BillboardWeeksOnChart: 24, 24
!!!COC: Quarterflash
!!!ENC: Nathaniel Condit-Schultz
!!!EST: Awating manual error checking and editing.
!!!OTL: Harden My Heart
!!!RDF**harte: Chris Harte's syntax, used by MIREX
!!!RDF**harmony: **recip + pitch class of root + harmonic quality
!!!RDF**leadinstrument: original McGill primary instrumentation annotation
!!!RDF**phrase: newline = linebreak in original McGill transcription
!!!RDF**timestamp: McGill audio timestamp in seconds
!!!RDT: 2017/01/12/
!!!SampleActualRank: 18,  4
!!!SampleID#: 608, 659
!!!SampleTargetRank: 18,  4
!!!MBID: 83705a74-561f-4b53-876d-cd128e64e449
